!!!COM: Claude Goudimel
!!!OMD: Psalm 35: Deba contre mes debateurs
**kern	**kern	**kern	**kern
*part4	*part3	*part2	*part1
*staff4	*staff3	*staff2	*staff1
*clefF4	*clefGv2	*clefG2	*clefG2
*k[b-]	*k[b-]	*k[b-]	*k[b-]
!!LO:TX:omd:t=
*M4/4	*M4/4	*M4/4	*M4/4
=1	=1	=1	=1
2FF	2C	2c	2f
4BB-	4D	4B-	4f
4GG	4D	4B-	4g
=2	=2	=2	=2
4FF	4F	4c	4a
4C	4E	4c	2g
2D	2F	2A	.
.	.	.	[4f
=3	=3	=3	=3
2C	2G	2c	4f]
.	.	.	4e
2FF	2A	2c	2f
=4	=4	=4	=4
2r	2r	2r	2r
2F	2c	2f	2a
=5	=5	=5	=5
4F	4c	4f	4a
4C	4c	4e	4g
2F	2c	2f	2a
=6	=6	=6	=6
2F	2A	2f	2cc
4G	4B-	4d	4b-
4F	4c	4f	4a
=7	=7	=7	=7
2C	2c	2e	2g
2r	2r	2r	2r
=8	=8	=8	=8
2F	2F	2c	2a
4C	4G	4e	4cc
4F	4A	4f	4cc
=9	=9	=9	=9
4BB-	4B-	4f	4dd
4FF	4A	4f	4cc
4BB-	4d	4f	4b-
4FF	4c	4f	4a
=10	=10	=10	=10
2C	2c	2e	2g
2FF	2A	2c	2f
=11	=11	=11	=11
2r	2r	2r	2r
2AA	2E	2A	2c
=12	=12	=12	=12
4GG	4G	4B-	4d
4C	4G	4c	4e
4BB-	4D	4d	4f
4FF	4F	4c	4a
=13	=13	=13	=13
4C	4E	4c	4g
4D	4F	4A	4f
2C	2G	2c	2e
=14	=14	=14	=14
2FF	2F	2c	2f
2r	2r	2r	2r
=15	=15	=15	=15
2F	2A	2c	2f
2C	2c	2e	2g
=16	=16	=16	=16
2F	2c	2f	2a
4F	4A	4c	4f
4E	4G	4e	4g
=17	=17	=17	=17
4D	4F	4f	4a
4D	4F	4d	4b-
2C	2G	2e	2cc
=18	=18	=18	=18
2r	2r	2r	2r
2F	2A	2c	2f
=19	=19	=19	=19
2C	2c	2e	2g
2F	2c	2f	2a
=20	=20	=20	=20
4BB-	4B-	4d	4f
4C	4G	4c	4e
4GG	4G	4c	4d
4GG	4G	4Bn	4d
=21	=21	=21	=21
2C	2G	2c	2c
2r	2r	2r	2r
=22	=22	=22	=22
2C	2G	2e	2cc
4F	4A	4f	4cc
4F	4c	4f	4a
=23	=23	=23	=23
2BB-	2B-	2d	2f
2BB-	2F	2d	2b-
=24	=24	=24	=24
4FF	4F	4c	4a
4C	4E	4c	4g
2FF	2F	2c	2a
=25	=25	=25	=25
2r	2r	2r	2r
2FF	2F	2c	2a
=26	=26	=26	=26
4C	4E	4c	4g
4D	4F	4A	4f
2C	2G	2c	2e
=27	=27	=27	=27
2GG	2B-	2d	2g
4BB-	4B-	4d	4f
4C	4G	4c	4e
=28	=28	=28	=28
1FF	1F	1c	1f
==	==	==	==
*-	*-	*-	*-
!!!software: music21 v.9.7.1
!!!software: music21 v.8.3.0
!!!RDF**kern: > = above
!!!RDF**kern: < = below
